X: 1016
T: Ways of the World
C:Old-Time
B: jims roots
M:4/8
L:1/4
Q: 1/4=100
K:D
V:1 
%N:TablEdited by Mike Stangeland
%Q:224
|: "D"A/B/d/e/ f/d/[f/d/]d/ | e/d/B/d/ [AD][AD] | A/B/d/e/ [fA][aA] | "A"[e3/2A3/2]f/ eA |
"D"A/B/d/e/ f/d/[f/d/]d/ | e/d/B/d/ [AD]A/B/ | [AD]F"A" E/FE/ |[1 D"D"[AD]D[AD]:|
"D"D3A/B/ | AF/F/ A3/2B/ | AF2 D/E/ | E/F/E/D/"A" E/FE/ |[1 D"D"[AD] DA/B/:|[2 "D"D4||
V:2 D"D"[AD
 DA/B/ |: [P:B Part]"D"AF/F/ A3/2B/ | AF2A/B/ | AF/F/"A" E/FE/|
% abcbook-tune_id 6298c297c9a7a3ae615f73c1


% abcbook-boost 0
% abcbook-tablature 
% abcbook-transpose 
% abcbook-lastupdated 1654178456763
% abcbook-soundfonts 
% abcbook-repeats 1


